app/images/icon/go-top.svg

<svg width="62" height="62" viewBox="0 0 62 62" fill="none" xmlns="http://www.w3.org/2000/svg">
<rect x="1" y="1" width="60" height="60" rx="9" stroke="#33D5BE" stroke-width="2"/>
<path d="M11.7916 37.4424L29.5224 19.5829C29.7335 19.371 29.9622 19.2212 30.2084 19.1335C30.4547 19.0445 30.7186 19 31 19C31.2814 19 31.5453 19.0445 31.7916 19.1335C32.0378 19.2212 32.2665 19.371 32.4776 19.5829L50.2612 37.4424C50.7537 37.937 51 38.5553 51 39.2972C51 40.0392 50.7361 40.6751 50.2084 41.2051C49.6807 41.735 49.0651 42 48.3615 42C47.6579 42 47.0422 41.735 46.5145 41.2051L31 25.6244L15.4855 41.2051C14.993 41.6997 14.3865 41.947 13.666 41.947C12.9441 41.947 12.3193 41.682 11.7916 41.1521C11.2639 40.6221 11 40.0038 11 39.2972C11 38.5906 11.2639 37.9724 11.7916 37.4424Z" fill="#33D5BE"/>
</svg>

<svg width="62" height="62" fill="none" xmlns="http://www.w3.org/2000/svg">
    <rect x="1" y="1" width="60" height="60" rx="9" stroke="#33D5BE" stroke-width="2"/>
    <path d="m11.792 37.442 17.73-17.86c.212-.211.44-.36.686-.448.247-.09.51-.134.792-.134.281 0 .545.044.792.134.246.087.474.237.686.449l17.783 17.86c.493.494.739 1.112.739 1.854s-.264 1.378-.792 1.908c-.527.53-1.143.795-1.846.795-.704 0-1.32-.265-1.848-.795L31 25.625l-15.514 15.58c-.493.495-1.1.742-1.82.742-.722 0-1.347-.265-1.874-.795-.528-.53-.792-1.148-.792-1.855 0-.706.264-1.325.792-1.855Z" fill="#33D5BE"/>
</svg>
